icons/file.svg

<svg width="16" height="16" viewBox="0 0 16 16" fill="none" xmlns="http://www.w3.org/2000/svg">
<path d="M12.7 5.21C12 4.53 10.47 3 9.79 2.29C9.60374 2.10526 9.35234 2.0011 9.09 2H4C3.73478 2 3.48043 2.10536 3.29289 2.29289C3.10536 2.48043 3 2.73478 3 3V13C3 13.2652 3.10536 13.5196 3.29289 13.7071C3.48043 13.8946 3.73478 14 4 14H12C12.2652 14 12.5196 13.8946 12.7071 13.7071C12.8946 13.5196 13 13.2652 13 13V5.91C12.9962 5.64623 12.8884 5.39463 12.7 5.21ZM4 13V3H9.09L10.53 4.45L12 5.91V13H4Z" fill="#909090" fill-opacity="0.9"/>
<path d="M8.5 4.5H5.5V5.5H8.5V4.5Z" fill="#909090" fill-opacity="0.9"/>
<path d="M10 7H5.5V8H10V7Z" fill="#909090" fill-opacity="0.9"/>
<path d="M10 9.5H5.5V10.5H10V9.5Z" fill="#909090" fill-opacity="0.9"/>
</svg>

<svg xmlns="http://www.w3.org/2000/svg" width="16" height="16" fill="none" viewBox="0 0 16 16"><path fill="#909090" fill-opacity=".9" d="M12.7 5.21C12 4.53 10.47 3 9.79 2.29a1 1 0 0 0-.7-.29H4a1 1 0 0 0-1 1v10a1 1 0 0 0 1 1h8a1 1 0 0 0 1-1V5.91a1 1 0 0 0-.3-.7M4 13V3h5.09l1.44 1.45L12 5.91V13z"/><path fill="#909090" fill-opacity=".9" d="M8.5 4.5h-3v1h3zM10 7H5.5v1H10zm0 2.5H5.5v1H10z"/></svg>
